dist/img/advantages/icons/curve_lines.svg

<svg width="64" height="64" viewBox="0 0 64 64" fill="none" xmlns="http://www.w3.org/2000/svg">
<mask id="mask0_469_1924" style="mask-type:luminance" maskUnits="userSpaceOnUse" x="0" y="0" width="64" height="64">
<path d="M0 0.00018692H63.9998V64H0V0.00018692Z" fill="white"/>
</mask>
<g mask="url(#mask0_469_1924)">
<path d="M41.7499 53V56.5531C41.7499 59.5463 39.3554 61.4425 36.8749 61.4987C35.3802 61.5326 33.8542 60.8983 32.802 59.4332C32.199 58.5937 31.8747 57.5861 31.8748 56.5525L31.8749 7.23C31.8749 6.58988 31.7293 5.95876 31.4489 5.38338L31.3622 5.20563C29.1163 0.598649 22.1248 2.21052 22.1248 7.38138L22.1249 44.1258C22.1249 48.4988 16.8122 50.6592 13.7595 47.5283C12.8718 46.6178 12.375 45.3966 12.375 44.125V21.8225C12.375 17.4087 7.02561 15.2126 3.92425 18.3532C3.01171 19.2773 2.50001 20.5237 2.5 21.8225V40.25" stroke="#005E9B" stroke-width="1.5" stroke-miterlimit="10" stroke-linecap="round" stroke-linejoin="round"/>
<path d="M61.4999 26.2501V44.0548C61.4999 44.8565 61.3047 45.6462 60.9311 46.3556C59.9718 48.1771 58.2941 48.9986 56.625 49C54.1153 49.0021 51.625 47.15 51.625 44.0548V21.8206C51.625 17.9298 47.3345 15.5678 44.0469 17.6485C43.3433 18.0938 42.7637 18.7098 42.3622 19.4393C41.9606 20.1687 41.75 20.9879 41.75 21.8206V40.5" stroke="#005E9B" stroke-width="1.5" stroke-miterlimit="10" stroke-linecap="round" stroke-linejoin="round"/>
</g>
</svg>

<svg xmlns="http://www.w3.org/2000/svg" width="64" height="64" fill="none"><mask id="a" width="64" height="64" x="0" y="0" maskUnits="userSpaceOnUse" style="mask-type:luminance"><path fill="#fff" d="M0 0h64v64H0V0Z"/></mask><g stroke="#005E9B" stroke-linecap="round" stroke-linejoin="round" stroke-miterlimit="10" stroke-width="1.5" mask="url(#a)"><path d="M41.75 53v3.553c0 2.993-2.395 4.89-4.875 4.946-1.495.034-3.02-.6-4.073-2.066a4.937 4.937 0 0 1-.927-2.88V7.23c0-.64-.146-1.271-.426-1.847l-.087-.177C29.116.599 22.125 2.21 22.125 7.38v36.745c0 4.373-5.313 6.533-8.366 3.402a4.875 4.875 0 0 1-1.384-3.403V21.823c0-4.414-5.35-6.61-8.45-3.47a4.937 4.937 0 0 0-1.425 3.47V40.25m59-14v17.805a4.93 4.93 0 0 1-.569 2.3c-.96 1.822-2.637 2.644-4.306 2.645-2.51.002-5-1.85-5-4.945V21.82c0-3.891-4.29-6.253-7.578-4.173a4.936 4.936 0 0 0-2.297 4.173V40.5"/></g></svg>
